X:1
T:I vostri acuti
T:Philippe Verdelot
T:Source : Publikation älterer praktischer und theoretischer Musik-Werke---R.Eitner--- Berlin---Liepmannssohn und M.Bahn---1874. First publication :  1534---Codex Basevi 2495 Editor : André Vierendeels (17/11/17). Notes : Original clefs : C1, C3, C3, F4 Original note values have been halved Editorial accidentals above the staff
T:I vostri acuti
T:©
T:©
T:©
T:©
T:©
T:©
C:Philippe Verdelot
Z:©
%%score [ 1 2 3 4 ]
L:1/8
Q:1/4=120
M:2/2
K:F
V:1 treble nm="Soprano" snm="S"
V:2 treble nm="Alto" snm="A"
V:3 treble-8 nm="Tenor" snm="T"
V:4 bass nm="Bass" snm="B"
V:1
 F8 | F2 F2 G2 G2 | A2 A2 z2 A2 | B8 | z2 A2 z2 A2- | A2 G4 G2 | G3 F E2 E2 | F4 E4 | z2 c2 c2 A2 | %9
w: I|vo- str'a- cu- ti|dar- di mi|fan;|ahi, ahi-|* me! ma-|don- na si lan-|gui- re,|ch'io son giun-|
 B2 A4 G2 | A4 z2 A2 | A6 A2 | F2 G4 A2- | A2 GF A2 G2 | z4 A4- | A2 A2 B4- | B4 !fermata!A4 || %17
w: t'al mo- ri-|re, ch'io|son giun-|t'al mo- ri-|* * * * re,|al|_ mo- ri-|* re.|
 z4 c4 | A2 A2 B2 B2 | A2 c2 B2 A2 | G4 F4 | z2 A2 B2 G2 | A2 B2 c4 | B2 A4 G2 | A8 | A8 | z8 | %27
w: Non|piu ve- lo- ci|son ma ben si|tar- di,|i pas- si|ch'ac- que- ta-|van' il mio|co-|re,||
 z8 | z4 z2 B2- | B2 c2 d4 | c2 B2 A4 | G4 z2 c2 | c3 B A3 G | F2 A2 G2 F2 | E2 F4 E2 | F4 z2 A2 | %36
w: |ond'|_ io, las-|so! son fo-|re da|de- si- a- ti|vo- stri dol- ci|sguar- * *|di, e|
 G2 F2 G2 G2 | A2 A2 z2 A2 | B8 | A4 G2 F2 | G4 F4 | z2 A2 B3 A | G2 F2 E2 F2- | %43
w: pur con- vien ch'io|guar- di il|duol;|ah dio! ch'io|sen- to:|che mai sa-|ro con- ten- *|
"^-natural" FE/D/ E2 F4- | F4 z2 A2 | B3 A G2 F2 | E2 F3 E/D/ E2 | F8- | F8- | F8- | F8 |] %51
w: * * * * to,|_ che|mai sa- ro con|ten- * * * *|to.|_|||
V:2
 A,8 | B,2 F,2 B,2 B,2 | C2 C2 z2 C2 | _E8 | z2 C2 z2 C2- | C2 C4 C2 | C2 C2 G,2 G,2 | B,4 G,4 | %8
w: I|vo- str'a- cu- ti|dar- di mi|fan;|ahi, ahi-|* me! ma-|don- na si lan-|gui- re,|
 z2 G,2 A,2 C2 | B,2 C2 D4 | C4 z2 C2 | C6 C2 | B,4 A,2 C2- | CB,/A,/ B,2 C4 | z4 C4- | C2 C2 D4- | %16
w: ch'io son giun-|t'al mo- ri-|re, ch'io|son giun-|t'al mo- ri-|* * * * re,|al|_ mo- ri-|
 D4 !fermata!C4 || z4 F4 | D2 D2 _E2 E2 | C2 C2 F3 E | D4 D4 | z2 F2 G2 D2 | F2 F2 G4 | G2 F4 ED | %24
w: * re.|Non|piu ve- lo- ci|son ma ben si|tar- di,|i pas- si|ch'ac- que- ta-|van' il _ _|
 F4 E4 | F4 z4 | F4 G2 A2- | AF B2 A2 G2- | G2 F2 G4 | D2 E2 F3 G | A2 G4 F2 | G8 | z4 z2 F2 | %33
w: mio co-|re,|ond' io, las-|* * * * so!|_ son fo-|re, ond' io, las-|so! son fo-|re|da|
 F3 E D2 D2 | C2 B,2 C2 C2 | A,2 A,2 z2 C2 | C2 A,2 C2 C2 | C2 C2 z2 F2 | F8 |"^b" F4 E2 D2 | %40
w: de- si- a- ti|vo- stri dol- ci|sguar- di e|pur con- vien ch'io|guar- di il|duol;|ah dio! ch'io|
 C4 D4 | z2 F2 F3 E | D2 D2 C2 B,2 | C4 z2 A,2 | B,3 C D2 EF | G3 F E2 D2 | C2 B,2 C4- | %47
w: sen- to:|che mai sa-|ro con ten- *|to, che|mai sa- ro con- *|ten- * * *|* * to,|
 C4 z2 A,2 | B,3 C D2 C2 | B,2 F,2 B,4 | A,8 |] %51
w: _ che|mai sa- ro con|ten- * *|to.|
V:3
 c8 | d2 c2 d2 e2 | f2 f2 z2 f2 | g8 | z2 f2 z2 f2- | f2 e4 e2 | e3 d c2 c2 | d4 c4 | z2 e2 f2 f2 | %9
w: I|vo- str'a- cu- ti|dar- di mi|fan;|ahi, ahi-|* me! ma-|don- na si lan-|gui- re,|ch'io son giun-|
"^b""^-natural" e2 e2 dcde | f2 e2 z2 e2 | f6 f2 | d4 e4 | f4 e4 | z4 f4- | f2 f2 f4- | %16
w: t'al mo- ri- * * *|* te, ch'io|son giun-|t'al mo-|ri- re,|al|_ mo- ri-|
 f4 !fermata!f4 || z4 a4 | f2 f2 g2 g2 | f3 e d2 c2 | B4 A4 | z2 d2 d2 B2 | c2 d2 e4 | d2 c2 d4- | %24
w: * re.|Non|piu ve- lo- ci|son ma ben si|tar- di,|i pas- si|ch'ac- que- ta-|van' il mio|
"^#""^#""^-natural" d2 cB c4 | d8 | z2 d4 e2 | f4 e2 d2 | c4 d4 | z8 | z4 z2 d2 | e3 d c3 B | A8 | %33
w: _ _ _ co-|re,|ond' io,|las- so! son|fo- re,||da|de- si- a- ti|vo-|
 A4 B3 A | G2 F2 G4 | F4 z2 f2 | e2 d2 e2 e2 | f2 f2 z2 A2 | B8 | A4 G2 F2 | G4 A4 | z2 d2 d3 c | %42
w: stri dol- *|* ci sguar-|di, e|pur con- vien ch'io|guar- di il|duol;|a dio! ch'io|sen- to:|che mai sa-|
"^b" B3 A G2 F2 | G4 F4 | z4 z2 c2 | d3 c B3 A | G2 F2 G4 | F4 z2 c2 | d3 c B2 A2 | d8 | c8 |] %51
w: ro con- ten- *|* to,|che|mai sa- ro con|ten- * *|to, che|mai sa- ro con-|ten-|to.|
V:4
 F,8 | B,2 A,2 G,2 G,2 | F,2 F,2 z2 F,2 | _E,8 | z2 F,2 z2 F,2- | F,2 C,4 C,2 | C,2 C,2 C,2 C,2 | %7
w: I|vo- str'a- cu- ti|dar- di mi|fan;|ahi, ahi-|* me! ma-|don- na si lan-|
 B,,4 C,4 | z2 C,2 F,2 F,2 | G,2 A,2 B,4 | A,4 z2 F,2 | F,6 F,2 | B,,4 C,4 | D,4 C,4 | z4 F,4- | %15
w: gui- re,|ch'io son giun-|t'al mo- ri-|re, ch'io|son giun-|t'al mo-|ri- re,|al|
 F,2 F,2 B,,4- | B,,4 !fermata!F,4 || z4 F,4 | F,2 F,2 _E,2 E,2 | F,2 F,2 B,,2 F,2 | G,4 D,4 | %21
w: _ mo- ri-|* re.|Non|piu ve- lo- ci|son ma ben si|tar- di,|
 z2 D,2 G,2 G,2 | F,2 D,2 C,D,E,F, | G,2 A,2 B,4 | A,8 | D,8 | z2 B,4 C2 | D4 C2 B,2 | A,4 G,4- | %29
w: i pas- si|ch'ac- que- ta- * * *|van' il mio|co-|re,|ond' io,|las- so! son|fo- *|
 G,2 F,E, D,4 | z8 | z8 | z2 F,2 F,3 E, | D,2 C,2 B,,2 B,,2 | C,2 D,2 C,4 | F,4 z2 F,2 | %36
w: * * * re,|||da de- si-|a- to vo- stri|dol- ci sguar-|di e|
 C,2 D,2 C,2 C,2 | F,2 F,2 z2 F,2 | B,8 | F,4 G,2 D,2 |"^b" E,4 D,4- | D,4 z2 B,,2 | %42
w: pur con- vien ch'io|guar- di il|duol;|ah dio! ch'io|sen- to|_ che|
 B,,2 B,,2 C,2 D,2 | C,2 C,2 z2 C2 | D3 C B,2 A,2 | G,2 D,2 E,2 F,2 | C,2 D,2 C,4 | F,4 z2 F,2 | %48
w: mai sa- ro con-|ten- to, che|mai sa- ro con|ten- * * *||to, che|
 B,,3 A,, B,,2 F,2 | B,,8 | F,8 |] %51
w: mai sa- ro con-|ten-|to|

